X:1
T:The Taylor Fell Thro' the Bed
M:6/8
L:1/8
K:C
G/2-F/2| E3/2 F/2 G e3/2 d/2 e| c/2 A3/2 A A2 G| E3/2 F/2 G e3/2 d/2 e|\
 c/2 G3/2 G G2g/2-f/2| ege f3/2 a/2 f| e3/2 d/2 c A2c/2-d/2| e3/2 g/2 f e3/2 d/2 c|\
 c/2 A3/2 G G2||

